X: 592
T: Achonry Lasses, The
R: reel
M: 4/4
K: Gmajor
~g3B dg~g2|dzcA (3Bcd AF|dfad fadz|dBcA (3Bcd AF|
~g2bg dg~g2|dzcA (3Bcd AF|df~f2 ~f3a|dBcA BGGz:|
|:gd~d2 fd~d2|ezcB cdef|(3gag fa (3gfe dz|(3fed cA AGGz|
gb~b2 fadg|edcB cdef|gzaf gedg|edcA AGGz:|

